X:4
T:Carolan's Receipt for Drinking
Z: id:dc-ocarolan-2
M:C|
L:1/8
K:G Major
gf|edcB cBAG|E2GA G2gf|edcB cBcd|e2AB A2Bc|!
dBde d2ef|g2fe d2BA|BAGE AGED|E2GA G2|]!
Bc|dBde dBAG|EFGA G2Bc|dBde d2Bd|e2eg e3g|!
G2 (3GAB A2 (3ABc|B2 (3cde d3d|efgf edBd|e2eg e2ga|!
babg agae|gfgd edcB|cBcd efgf|edgB A4|!
BcBA G2eg|dgBA G2GA|BAGE AGED|E2GA G2|]!

